!!!OTL: Jungfer Doertchen Es war ein Jaeger wohlgemut,
!!!ARE: Europa, Mitteleuropa, Deutschland (BRD), Hessen
!!!YOR: 3, S. 103
!!    1893 gedruckt in Hamburg
!!!SCT: Q0057W
!!!YEM: Copyright 1995, estate of Helmut Schaffrath.
**kern
*ICvox
*Ivox
*M3/4
*k[f#]
*G:
{4d
8b
8a
=1
4g
4ee
8ee
8dd
=2
4dd
8r}
{8dd
16ee
16ee
8dd
=3
4cc
4a
8dd
8cc
=4
4b
8r}
{8g
12g
12g
12ee
=5
4ee
8cc
8ee
12gg
12ff#
12ee
=6
4dd
8b}
{8dd
12ee
12ee
12dd
=7
4cc
8a
8ee
8dd
8cc
=8
4b}
==
!!!AGN: Ballade, Todesahnung, Tod, Selbstmord
!!!ONB: ESAC (Essen Associative Code) Database: BALLADE
!!!AMT: simple triple
!!!AIN: vox
!!!EED: Helmut Schaffrath
!!!EEV: 1.0
*-
